arrow-top-left-thin-circle-outline.svg

<svg fill="currentColor" viewBox="0 0 24 24"><path d="M12 3.97c4.41 0 8.03 3.62 8.03 8.03s-3.62 8.03-8.03 8.03S3.97 16.41 3.97 12 7.59 3.97 12 3.97M12 2C6.46 2 2 6.46 2 12s4.46 10 10 10 10-4.46 10-10S17.54 2 12 2m-1.88 9.53L8 13.64V8h5.64l-2.11 2.12 4.97 4.98-1.4 1.4"/></svg>

<svg  viewBox="0 0 24 24" fill="currentColor"><path  d="M12 3.97C16.41 3.97 20.03 7.59 20.03 12C20.03 16.41 16.41 20.03 12 20.03C7.59 20.03 3.97 16.41 3.97 12C3.97 7.59 7.59 3.97 12 3.97M12 2C6.46 2 2 6.46 2 12C2 17.54 6.46 22 12 22C17.54 22 22 17.54 22 12C22 6.46 17.54 2 12 2M10.12 11.53L8 13.64V8H13.64L11.53 10.12L16.5 15.1L15.1 16.5"/></svg>
